Newaita-dark/mimetypes/32/payment-card-discover.svg

<svg height="32pt" viewBox="0 0 32 32" width="32pt" xmlns="http://www.w3.org/2000/svg" xmlns:xlink="http://www.w3.org/1999/xlink"><linearGradient id="a" gradientUnits="userSpaceOnUse" x1="16.538045" x2="16.538045" y1="26.049371" y2="27.37241487502"><stop offset="0" stop-opacity=".27451"/><stop offset="1" stop-opacity="0"/></linearGradient><linearGradient id="b"><stop offset="0" stop-opacity=".313725"/><stop offset=".222222" stop-opacity=".27451"/><stop offset="1" stop-opacity="0"/></linearGradient><radialGradient id="c" cx="450.90894" cy="189.57936" gradientTransform="matrix(.00000017 -.0781325 -.140638 -.0000001 53.453693 61.61077)" gradientUnits="userSpaceOnUse" r="21.166656" xlink:href="#b"/><radialGradient id="d" cx="450.90894" cy="189.57936" gradientTransform="matrix(-.00000017 .0781325 .140638 .0000001 -21.700661 -9.512043)" gradientUnits="userSpaceOnUse" r="21.166656" xlink:href="#b"/><radialGradient id="e" cx="450.90894" cy="189.57936" gradientTransform="matrix(-.00000017 -.0781325 .140638 -.0000001 -21.700661 61.61077)" gradientUnits="userSpaceOnUse" r="21.166656" xlink:href="#b"/><radialGradient id="f" cx="450.90894" cy="189.57936" gradientTransform="matrix(.00000017 .0781325 -.140638 .0000001 53.453692 -9.512044)" gradientUnits="userSpaceOnUse" r="21.166656" xlink:href="#b"/><linearGradient id="g" gradientUnits="userSpaceOnUse" x1="15.876524" x2="15.876524" y1="30.68002175004" y2="1.57306087502"><stop offset="0" stop-color="#bdbdbd"/><stop offset="1" stop-color="#e0e0e0"/></linearGradient><linearGradient id="h"><stop offset="0" stop-color="#ff7043"/><stop offset="1" stop-color="#ffb74d"/></linearGradient><linearGradient id="i" gradientUnits="userSpaceOnUse" x1="15.876524" x2="15.876524" xlink:href="#h" y1="26.0493685" y2="6.2037135"/><linearGradient id="j" gradientUnits="userSpaceOnUse" x1="15.87648" x2="15.87648" y1="26.0493047916" y2="6.2037031378"><stop offset="0" stop-color="#424242"/><stop offset="1" stop-color="#616161"/></linearGradient><linearGradient id="k" gradientUnits="userSpaceOnUse" x1="16.53804625004" x2="16.53804625004" xlink:href="#h" y1="26.0493685" y2="6.2037135"/><path d="m4.628906 26.050781h22.492188v1.320313h-22.492188zm0 0" fill="url(#a)"/><path d="m27.121094 26.050781h2.648437v-1.324219h-2.648437zm0 0" fill="url(#c)"/><path d="m4.628906 26.050781h-2.644531v1.320313h2.644531zm0 0" fill="url(#d)"/><path d="m4.628906 26.050781h-2.644531v-1.324219h2.644531zm0 0" fill="url(#e)"/><path d="m27.121094 26.050781h2.648437v1.320313h-2.648437zm0 0" fill="url(#f)"/><path d="m3.96875 6.203125h23.816406c.730469 0 1.320313.59375 1.320313 1.324219v17.199218c0 .730469-.589844 1.324219-1.320313 1.324219h-23.816406c-.730469 0-1.324219-.59375-1.324219-1.324219v-17.199218c0-.730469.59375-1.324219 1.324219-1.324219zm0 0" fill="url(#g)"/><path d="m29.105469 16.304688c-5.503907 5.265624-14.832031 8.933593-25.6875 9.625.167969.078124.355469.121093.550781.121093h23.816406c.730469 0 1.320313-.589843 1.320313-1.324219zm0 0" fill="url(#i)"/><path d="m3.96875 6.203125c-.734375 0-1.324219.589844-1.324219 1.324219v.332031c0-.734375.589844-1.324219 1.324219-1.324219h23.816406c.730469 0 1.320313.589844 1.320313 1.324219v-.332031c0-.734375-.589844-1.324219-1.320313-1.324219zm0 0" fill="#fff" fill-opacity=".588235"/><path d="m2.644531 24.40625v.320312c0 .734376.589844 1.324219 1.324219 1.324219h23.816406c.730469 0 1.320313-.589843 1.320313-1.324219v-.320312c0 .734375-.589844 1.324219-1.320313 1.324219h-23.816406c-.734375 0-1.324219-.589844-1.324219-1.324219zm0 0" fill-opacity=".235294"/><path d="m63.493937-115.759477h381.026113c11.686384 0 21.122983 9.499093 21.122983 21.185477v275.161223c0 11.686384-9.436599 21.185477-21.122983 21.185477h-381.026113c-11.686384 0-21.185477-9.499093-21.185477-21.185477v-275.161223c0-11.686384 9.499093-21.185477 21.185477-21.185477zm0 0" fill="none" stroke="#212121" stroke-linecap="round" stroke-linejoin="round" stroke-width="3" transform="matrix(.062506 0 0 .062506 0 13.438783)"/><path d="m1759.910699 985.890117c-332.802869 318.394795-896.843501 540.184642-1553.237519 581.991674 10.15651 4.723958 21.49401 7.322135 33.303906 7.322135h1440.098716c44.169011 0 79.834897-35.665886 79.834897-80.071095zm0 0" fill="none" stroke="#212121" stroke-linecap="round" stroke-linejoin="round" stroke-width="11.338583" transform="scale(.016538)"/><path d="m13.917969 13.917969c-.855469 0-1.539063.671875-1.539063 1.511719 0 .851562.667969 1.507812 1.527344 1.507812.242188 0 .449219-.046875.707031-.167969v-.664062c-.226562.226562-.425781.316406-.683593.316406-.566407 0-.96875-.410156-.96875-.996094 0-.554687.414062-.992187.945312-.992187.269531 0 .472656.097656.707031.324218v-.664062c-.25-.125-.453125-.175781-.695312-.175781zm-2.664063.015625c-.511718 0-.902344.355468-.902344.828125 0 .398437.179688.605469.710938.792969.21875.078124.332031.132812.390625.167968.113281.070313.167969.175782.167969.296875 0 .234375-.1875.40625-.4375.40625-.269532 0-.484375-.132812-.617188-.382812l-.363281.351562c.261719.378907.574219.546875 1 .546875.585937 0 1-.386718 1-.949218 0-.457032-.191406-.664063-.832031-.898438-.339844-.125-.4375-.210938-.4375-.367188 0-.179687.175781-.320312.417968-.320312.171876 0 .308594.070312.457032.234375l.292968-.386719c-.242187-.210937-.53125-.320312-.847656-.320312zm-4.464844.050781v2.890625h.824219c.4375 0 .753907-.105469 1.03125-.335938.328125-.273437.523438-.683593.523438-1.109374 0-.851563-.636719-1.445313-1.550781-1.445313zm2.640626 0v2.890625h.5625v-2.890625zm8.265624 0 1.226563 2.964844h.304687l1.246094-2.964844h-.609375l-.78125 1.941406-.769531-1.941406zm3.035157 0v2.890625h1.597656v-.492188h-1.035156v-.777343h.996093v-.492188h-.996093v-.640625h1.035156v-.488281zm1.972656 0v2.890625h.5625v-1.164062h.074219l.777344 1.164062h.695312l-.910156-1.21875c.425781-.085938.660156-.378906.660156-.820312 0-.539063-.375-.851563-1.023438-.851563zm.5625.453125h.171875c.351562 0 .542969.148438.542969.429688 0 .289062-.191407.445312-.550781.445312h-.164063zm-15.914063.035156h.152344c.363282 0 .585938.066406.769532.234375.195312.171875.3125.441407.3125.71875 0 .277344-.117188.554688-.3125.730469-.175782.15625-.40625.226562-.769532.226562h-.152344zm0 0" fill="url(#j)"/><path d="m16.371094 13.976562c.824218 0 1.488281.667969 1.488281 1.488282 0 .820312-.664063 1.488281-1.488281 1.488281-.820313 0-1.488282-.667969-1.488282-1.488281 0-.820313.667969-1.488282 1.488282-1.488282zm0 0" fill="url(#k)"/><g fill="none" stroke="#212121"><path d="m841.573188 841.573188c-51.727345 0-93.061981 40.626042-93.061981 91.408595 0 51.491146 40.389845 91.172397 92.353387 91.172397 14.644271 0 27.162761-2.834375 42.751823-10.156511v-40.153646c-13.699479 13.699479-25.745573 19.132031-41.334636 19.132031-34.248698 0-58.577084-24.800781-58.577084-60.230469 0-33.540105 25.03698-59.994272 57.159897-59.994272 16.297656 0 28.579948 5.904948 42.751823 19.604427v-40.153646c-15.116666-7.558333-27.398958-10.628906-42.043229-10.628906zm-161.086982.944791c-30.941927 0-54.561719 21.494011-54.561719 50.073959 0 24.092188 10.865104 36.610678 42.988021 47.948178 13.227084 4.723958 20.076824 8.030729 23.619792 10.156511 6.84974 4.251562 10.156511 10.628906 10.156511 17.951041 0 14.171876-11.3375 24.564584-26.454167 24.564584-16.297657 0-29.288542-8.030729-37.319271-23.147396l-21.966407 21.257813c15.825261 22.911198 34.721094 33.067708 60.466668 33.067708 35.429687 0 60.466667-23.383594 60.466667-57.396094 0-27.635157-11.573698-40.153646-50.310157-54.325522-20.549219-7.558333-26.454167-12.754687-26.454167-22.202604 0-10.865104 10.628906-19.368229 25.273177-19.368229 10.392709 0 18.659636 4.251562 27.635157 14.171875l17.714844-23.383594c-14.644271-12.754688-32.122917-19.36823-51.254949-19.36823zm-269.974222 3.070573v174.786461h49.837761c26.454167 0 45.586199-6.377344 62.356251-20.313021 19.840625-16.533855 31.650521-41.334636 31.650521-67.080209 0-51.491147-38.500261-87.393231-93.770574-87.393231zm159.669794 0v174.786461h34.0125v-174.786461zm499.794798 0 74.166147 179.274221h18.423437l75.347137-179.274221h-36.846876l-47.239584 117.390366-46.53099-117.390366zm183.525784 0v174.786461h96.604949v-29.760938h-62.592449v-47.003386h60.230469v-29.760938h-60.230469v-38.736459h62.592449v-29.52474zm119.279949 0v174.786461h34.0125v-70.38698h4.487761l47.003386 70.38698h42.04323l-55.034116-73.693751c25.745574-5.196354 39.917449-22.911198 39.917449-49.601563 0-32.595313-22.675001-51.491147-61.883855-51.491147zm34.0125 27.398959h10.392709c21.257813 0 32.831511 8.975521 32.831511 25.981771 0 17.478646-11.573698 26.926563-33.303907 26.926563h-9.920313zm-962.270324 2.125781h9.211719c21.966406 0 35.429688 4.015365 46.53099 14.171875 11.809896 10.392709 18.895833 26.690365 18.895833 43.460418 0 16.770052-7.085937 33.540104-18.895833 44.169011-10.628907 9.447916-24.564584 13.699479-46.53099 13.699479h-9.211719zm0 0" stroke-width="11.338583" transform="scale(.016538)"/><path d="m261.912489 8.603647c13.18624 0 23.810226 10.686479 23.810226 23.810226s-10.623986 23.810226-23.810226 23.810226c-13.123747 0-23.810227-10.686479-23.810227-23.810226s10.68648-23.810226 23.810227-23.810226zm0 0" stroke-linecap="round" stroke-linejoin="round" stroke-width="3" transform="matrix(.062506 0 0 .062506 0 13.438783)"/></g></svg>

<?xml version="1.0" encoding="UTF-8"?>
<svg xmlns="http://www.w3.org/2000/svg" xmlns:xlink="http://www.w3.org/1999/xlink" width="32pt" height="32pt" viewBox="0 0 32 32" version="1.1">
<defs>
<linearGradient id="linear0" gradientUnits="userSpaceOnUse" x1="254" y1="233.5" x2="254" y2="254.66667" gradientTransform="matrix(0.062506,0,0,0.062506,0.661521,11.45422)">
<stop offset="0" style="stop-color:rgb(0%,0%,0%);stop-opacity:0.27451;"/>
<stop offset="1" style="stop-color:rgb(0%,0%,0%);stop-opacity:0;"/>
</linearGradient>
<radialGradient id="radial0" gradientUnits="userSpaceOnUse" cx="450.90894" cy="189.57936" fx="450.90894" fy="189.57936" r="21.166656" gradientTransform="matrix(0.00000017417,-0.0781325,-0.140638,-0.000000101539,53.453693,61.61077)">
<stop offset="0" style="stop-color:rgb(0%,0%,0%);stop-opacity:0.313725;"/>
<stop offset="0.222222" style="stop-color:rgb(0%,0%,0%);stop-opacity:0.27451;"/>
<stop offset="1" style="stop-color:rgb(0%,0%,0%);stop-opacity:0;"/>
</radialGradient>
<radialGradient id="radial1" gradientUnits="userSpaceOnUse" cx="450.90894" cy="189.57936" fx="450.90894" fy="189.57936" r="21.166656" gradientTransform="matrix(-0.00000017417,0.0781325,0.140638,0.000000101539,-21.700661,-9.512043)">
<stop offset="0" style="stop-color:rgb(0%,0%,0%);stop-opacity:0.313725;"/>
<stop offset="0.222222" style="stop-color:rgb(0%,0%,0%);stop-opacity:0.27451;"/>
<stop offset="1" style="stop-color:rgb(0%,0%,0%);stop-opacity:0;"/>
</radialGradient>
<radialGradient id="radial2" gradientUnits="userSpaceOnUse" cx="450.90894" cy="189.57936" fx="450.90894" fy="189.57936" r="21.166656" gradientTransform="matrix(-0.00000017417,-0.0781325,0.140638,-0.000000101539,-21.700661,61.61077)">
<stop offset="0" style="stop-color:rgb(0%,0%,0%);stop-opacity:0.313725;"/>
<stop offset="0.222222" style="stop-color:rgb(0%,0%,0%);stop-opacity:0.27451;"/>
<stop offset="1" style="stop-color:rgb(0%,0%,0%);stop-opacity:0;"/>
</radialGradient>
<radialGradient id="radial3" gradientUnits="userSpaceOnUse" cx="450.90894" cy="189.57936" fx="450.90894" fy="189.57936" r="21.166656" gradientTransform="matrix(0.00000017417,0.0781325,-0.140638,0.000000101539,53.453692,-9.512044)">
<stop offset="0" style="stop-color:rgb(0%,0%,0%);stop-opacity:0.313725;"/>
<stop offset="0.222222" style="stop-color:rgb(0%,0%,0%);stop-opacity:0.27451;"/>
<stop offset="1" style="stop-color:rgb(0%,0%,0%);stop-opacity:0;"/>
</radialGradient>
<linearGradient id="linear1" gradientUnits="userSpaceOnUse" x1="254" y1="275.83334" x2="254" y2="-189.83333" gradientTransform="matrix(0.062506,0,0,0.062506,0,13.438783)">
<stop offset="0" style="stop-color:rgb(74.117647%,74.117647%,74.117647%);stop-opacity:1;"/>
<stop offset="1" style="stop-color:rgb(87.843137%,87.843137%,87.843137%);stop-opacity:1;"/>
</linearGradient>
<linearGradient id="linear2" gradientUnits="userSpaceOnUse" x1="254" y1="201.75" x2="254" y2="-115.75" gradientTransform="matrix(0.062506,0,0,0.062506,0,13.438783)">
<stop offset="0" style="stop-color:rgb(100%,43.921569%,26.27451%);stop-opacity:1;"/>
<stop offset="1" style="stop-color:rgb(100%,71.764706%,30.196078%);stop-opacity:1;"/>
</linearGradient>
<linearGradient id="linear3" gradientUnits="userSpaceOnUse" x1="960" y1="1575.1182" x2="960" y2="375.1181" gradientTransform="matrix(0.016538,0,0,0.016538,0,0)">
<stop offset="0" style="stop-color:rgb(25.882353%,25.882353%,25.882353%);stop-opacity:1;"/>
<stop offset="1" style="stop-color:rgb(38.039216%,38.039216%,38.039216%);stop-opacity:1;"/>
</linearGradient>
<linearGradient id="linear4" gradientUnits="userSpaceOnUse" x1="264.58334" y1="201.75" x2="264.58334" y2="-115.75" gradientTransform="matrix(0.062506,0,0,0.062506,0,13.438783)">
<stop offset="0" style="stop-color:rgb(100%,43.921569%,26.27451%);stop-opacity:1;"/>
<stop offset="1" style="stop-color:rgb(100%,71.764706%,30.196078%);stop-opacity:1;"/>
</linearGradient>
</defs>
<g id="surface1">
<path style=" stroke:none;fill-rule:nonzero;fill:url(#linear0);" d="M 4.628906 26.050781 L 27.121094 26.050781 L 27.121094 27.371094 L 4.628906 27.371094 Z M 4.628906 26.050781 "/>
<path style=" stroke:none;fill-rule:nonzero;fill:url(#radial0);" d="M 27.121094 26.050781 L 29.769531 26.050781 L 29.769531 24.726562 L 27.121094 24.726562 Z M 27.121094 26.050781 "/>
<path style=" stroke:none;fill-rule:nonzero;fill:url(#radial1);" d="M 4.628906 26.050781 L 1.984375 26.050781 L 1.984375 27.371094 L 4.628906 27.371094 Z M 4.628906 26.050781 "/>
<path style=" stroke:none;fill-rule:nonzero;fill:url(#radial2);" d="M 4.628906 26.050781 L 1.984375 26.050781 L 1.984375 24.726562 L 4.628906 24.726562 Z M 4.628906 26.050781 "/>
<path style=" stroke:none;fill-rule:nonzero;fill:url(#radial3);" d="M 27.121094 26.050781 L 29.769531 26.050781 L 29.769531 27.371094 L 27.121094 27.371094 Z M 27.121094 26.050781 "/>
<path style=" stroke:none;fill-rule:nonzero;fill:url(#linear1);" d="M 3.96875 6.203125 L 27.785156 6.203125 C 28.515625 6.203125 29.105469 6.796875 29.105469 7.527344 L 29.105469 24.726562 C 29.105469 25.457031 28.515625 26.050781 27.785156 26.050781 L 3.96875 26.050781 C 3.238281 26.050781 2.644531 25.457031 2.644531 24.726562 L 2.644531 7.527344 C 2.644531 6.796875 3.238281 6.203125 3.96875 6.203125 Z M 3.96875 6.203125 "/>
<path style=" stroke:none;fill-rule:nonzero;fill:url(#linear2);" d="M 29.105469 16.304688 C 23.601562 21.570312 14.273438 25.238281 3.417969 25.929688 C 3.585938 26.007812 3.773438 26.050781 3.96875 26.050781 L 27.785156 26.050781 C 28.515625 26.050781 29.105469 25.460938 29.105469 24.726562 Z M 29.105469 16.304688 "/>
<path style=" stroke:none;fill-rule:nonzero;fill:rgb(100%,100%,100%);fill-opacity:0.588235;" d="M 3.96875 6.203125 C 3.234375 6.203125 2.644531 6.792969 2.644531 7.527344 L 2.644531 7.859375 C 2.644531 7.125 3.234375 6.535156 3.96875 6.535156 L 27.785156 6.535156 C 28.515625 6.535156 29.105469 7.125 29.105469 7.859375 L 29.105469 7.527344 C 29.105469 6.792969 28.515625 6.203125 27.785156 6.203125 Z M 3.96875 6.203125 "/>
<path style=" stroke:none;fill-rule:nonzero;fill:rgb(0%,0%,0%);fill-opacity:0.235294;" d="M 2.644531 24.40625 L 2.644531 24.726562 C 2.644531 25.460938 3.234375 26.050781 3.96875 26.050781 L 27.785156 26.050781 C 28.515625 26.050781 29.105469 25.460938 29.105469 24.726562 L 29.105469 24.40625 C 29.105469 25.140625 28.515625 25.730469 27.785156 25.730469 L 3.96875 25.730469 C 3.234375 25.730469 2.644531 25.140625 2.644531 24.40625 Z M 2.644531 24.40625 "/>
<path style="fill:none;stroke-width:3;stroke-linecap:round;stroke-linejoin:round;stroke:rgb(12.941176%,12.941176%,12.941176%);stroke-opacity:1;stroke-miterlimit:4;" d="M 63.493937 -115.759477 L 444.52005 -115.759477 C 456.206434 -115.759477 465.643033 -106.260384 465.643033 -94.574 L 465.643033 180.587223 C 465.643033 192.273607 456.206434 201.7727 444.52005 201.7727 L 63.493937 201.7727 C 51.807553 201.7727 42.30846 192.273607 42.30846 180.587223 L 42.30846 -94.574 C 42.30846 -106.260384 51.807553 -115.759477 63.493937 -115.759477 Z M 63.493937 -115.759477 " transform="matrix(0.062506,0,0,0.062506,0,13.438783)"/>
<path style="fill:none;stroke-width:11.338583;stroke-linecap:round;stroke-linejoin:round;stroke:rgb(12.941176%,12.941176%,12.941176%);stroke-opacity:1;stroke-miterlimit:4;" d="M 1759.910699 985.890117 C 1427.10783 1304.284912 863.067198 1526.074759 206.67318 1567.881791 C 216.82969 1572.605749 228.16719 1575.203926 239.977086 1575.203926 L 1680.075802 1575.203926 C 1724.244813 1575.203926 1759.910699 1539.53804 1759.910699 1495.132831 Z M 1759.910699 985.890117 " transform="matrix(0.016538,0,0,0.016538,0,0)"/>
<path style=" stroke:none;fill-rule:nonzero;fill:url(#linear3);" d="M 13.917969 13.917969 C 13.0625 13.917969 12.378906 14.589844 12.378906 15.429688 C 12.378906 16.28125 13.046875 16.9375 13.90625 16.9375 C 14.148438 16.9375 14.355469 16.890625 14.613281 16.769531 L 14.613281 16.105469 C 14.386719 16.332031 14.1875 16.421875 13.929688 16.421875 C 13.363281 16.421875 12.960938 16.011719 12.960938 15.425781 C 12.960938 14.871094 13.375 14.433594 13.90625 14.433594 C 14.175781 14.433594 14.378906 14.53125 14.613281 14.757812 L 14.613281 14.09375 C 14.363281 13.96875 14.160156 13.917969 13.917969 13.917969 Z M 11.253906 13.933594 C 10.742188 13.933594 10.351562 14.289062 10.351562 14.761719 C 10.351562 15.160156 10.53125 15.367188 11.0625 15.554688 C 11.28125 15.632812 11.394531 15.6875 11.453125 15.722656 C 11.566406 15.792969 11.621094 15.898438 11.621094 16.019531 C 11.621094 16.253906 11.433594 16.425781 11.183594 16.425781 C 10.914062 16.425781 10.699219 16.292969 10.566406 16.042969 L 10.203125 16.394531 C 10.464844 16.773438 10.777344 16.941406 11.203125 16.941406 C 11.789062 16.941406 12.203125 16.554688 12.203125 15.992188 C 12.203125 15.535156 12.011719 15.328125 11.371094 15.09375 C 11.03125 14.96875 10.933594 14.882812 10.933594 14.726562 C 10.933594 14.546875 11.109375 14.40625 11.351562 14.40625 C 11.523438 14.40625 11.660156 14.476562 11.808594 14.640625 L 12.101562 14.253906 C 11.859375 14.042969 11.570312 13.933594 11.253906 13.933594 Z M 6.789062 13.984375 L 6.789062 16.875 L 7.613281 16.875 C 8.050781 16.875 8.367188 16.769531 8.644531 16.539062 C 8.972656 16.265625 9.167969 15.855469 9.167969 15.429688 C 9.167969 14.578125 8.53125 13.984375 7.617188 13.984375 Z M 9.429688 13.984375 L 9.429688 16.875 L 9.992188 16.875 L 9.992188 13.984375 Z M 17.695312 13.984375 L 18.921875 16.949219 L 19.226562 16.949219 L 20.472656 13.984375 L 19.863281 13.984375 L 19.082031 15.925781 L 18.3125 13.984375 Z M 20.730469 13.984375 L 20.730469 16.875 L 22.328125 16.875 L 22.328125 16.382812 L 21.292969 16.382812 L 21.292969 15.605469 L 22.289062 15.605469 L 22.289062 15.113281 L 21.292969 15.113281 L 21.292969 14.472656 L 22.328125 14.472656 L 22.328125 13.984375 Z M 22.703125 13.984375 L 22.703125 16.875 L 23.265625 16.875 L 23.265625 15.710938 L 23.339844 15.710938 L 24.117188 16.875 L 24.8125 16.875 L 23.902344 15.65625 C 24.328125 15.570312 24.5625 15.277344 24.5625 14.835938 C 24.5625 14.296875 24.1875 13.984375 23.539062 13.984375 Z M 23.265625 14.4375 L 23.4375 14.4375 C 23.789062 14.4375 23.980469 14.585938 23.980469 14.867188 C 23.980469 15.15625 23.789062 15.3125 23.429688 15.3125 L 23.265625 15.3125 Z M 7.351562 14.472656 L 7.503906 14.472656 C 7.867188 14.472656 8.089844 14.539062 8.273438 14.707031 C 8.46875 14.878906 8.585938 15.148438 8.585938 15.425781 C 8.585938 15.703125 8.46875 15.980469 8.273438 16.15625 C 8.097656 16.3125 7.867188 16.382812 7.503906 16.382812 L 7.351562 16.382812 Z M 7.351562 14.472656 "/>
<path style=" stroke:none;fill-rule:nonzero;fill:url(#linear4);" d="M 16.371094 13.976562 C 17.195312 13.976562 17.859375 14.644531 17.859375 15.464844 C 17.859375 16.285156 17.195312 16.953125 16.371094 16.953125 C 15.550781 16.953125 14.882812 16.285156 14.882812 15.464844 C 14.882812 14.644531 15.550781 13.976562 16.371094 13.976562 Z M 16.371094 13.976562 "/>
<path style="fill:none;stroke-width:11.338583;stroke-linecap:butt;stroke-linejoin:miter;stroke:rgb(12.941176%,12.941176%,12.941176%);stroke-opacity:1;stroke-miterlimit:4;" d="M 841.573188 841.573188 C 789.845843 841.573188 748.511207 882.19923 748.511207 932.981783 C 748.511207 984.472929 788.901052 1024.15418 840.864594 1024.15418 C 855.508865 1024.15418 868.027355 1021.319805 883.616417 1013.997669 L 883.616417 973.844023 C 869.916938 987.543502 857.870844 992.976054 842.281781 992.976054 C 808.033083 992.976054 783.704697 968.175273 783.704697 932.745585 C 783.704697 899.20548 808.741677 872.751313 840.864594 872.751313 C 857.16225 872.751313 869.444542 878.656261 883.616417 892.35574 L 883.616417 852.202094 C 868.499751 844.643761 856.217459 841.573188 841.573188 841.573188 Z M 680.486206 842.517979 C 649.544279 842.517979 625.924487 864.01199 625.924487 892.591938 C 625.924487 916.684126 636.789591 929.202616 668.912508 940.540116 C 682.139592 945.264074 688.989332 948.570845 692.5323 950.696627 C 699.38204 954.948189 702.688811 961.325533 702.688811 968.647668 C 702.688811 982.819544 691.351311 993.212252 676.234644 993.212252 C 659.936987 993.212252 646.946102 985.181523 638.915373 970.064856 L 616.948966 991.322669 C 632.774227 1014.233867 651.67006 1024.390377 677.415634 1024.390377 C 712.845321 1024.390377 737.882301 1001.006783 737.882301 966.994283 C 737.882301 939.359126 726.308603 926.840637 687.572144 912.668761 C 667.022925 905.110428 661.117977 899.914074 661.117977 890.466157 C 661.117977 879.601053 671.746883 871.097928 686.391154 871.097928 C 696.783863 871.097928 705.05079 875.34949 714.026311 885.269803 L 731.741155 861.886209 C 717.096884 849.131521 699.618238 842.517979 680.486206 842.517979 Z M 410.511984 845.588552 L 410.511984 1020.375013 L 460.349745 1020.375013 C 486.803912 1020.375013 505.935944 1013.997669 522.705996 1000.061992 C 542.546621 983.528137 554.356517 958.727356 554.356517 932.981783 C 554.356517 881.490636 515.856256 845.588552 460.585943 845.588552 Z M 570.181778 845.588552 L 570.181778 1020.375013 L 604.194278 1020.375013 L 604.194278 845.588552 Z M 1069.976576 845.588552 L 1144.142723 1024.862773 L 1162.56616 1024.862773 L 1237.913297 845.588552 L 1201.066421 845.588552 L 1153.826837 962.978918 L 1107.295847 845.588552 Z M 1253.50236 845.588552 L 1253.50236 1020.375013 L 1350.107309 1020.375013 L 1350.107309 990.614075 L 1287.51486 990.614075 L 1287.51486 943.610689 L 1347.745329 943.610689 L 1347.745329 913.849751 L 1287.51486 913.849751 L 1287.51486 875.113292 L 1350.107309 875.113292 L 1350.107309 845.588552 Z M 1372.782309 845.588552 L 1372.782309 1020.375013 L 1406.794809 1020.375013 L 1406.794809 949.988033 L 1411.28257 949.988033 L 1458.285956 1020.375013 L 1500.329186 1020.375013 L 1445.29507 946.681262 C 1471.040644 941.484908 1485.212519 923.770064 1485.212519 897.079699 C 1485.212519 864.484386 1462.537518 845.588552 1423.328664 845.588552 Z M 1406.794809 872.987511 L 1417.187518 872.987511 C 1438.445331 872.987511 1450.019029 881.963032 1450.019029 898.969282 C 1450.019029 916.447928 1438.445331 925.895845 1416.715122 925.895845 L 1406.794809 925.895845 Z M 444.524485 875.113292 L 453.736204 875.113292 C 475.70261 875.113292 489.165892 879.128657 500.267194 889.285167 C 512.07709 899.677876 519.163027 915.975532 519.163027 932.745585 C 519.163027 949.515637 512.07709 966.285689 500.267194 976.914596 C 489.638287 986.362512 475.70261 990.614075 453.736204 990.614075 L 444.524485 990.614075 Z M 444.524485 875.113292 " transform="matrix(0.016538,0,0,0.016538,0,0)"/>
<path style="fill:none;stroke-width:3;stroke-linecap:round;stroke-linejoin:round;stroke:rgb(12.941176%,12.941176%,12.941176%);stroke-opacity:1;stroke-miterlimit:4;" d="M 261.912489 8.603647 C 275.098729 8.603647 285.722715 19.290126 285.722715 32.413873 C 285.722715 45.53762 275.098729 56.224099 261.912489 56.224099 C 248.788742 56.224099 238.102262 45.53762 238.102262 32.413873 C 238.102262 19.290126 248.788742 8.603647 261.912489 8.603647 Z M 261.912489 8.603647 " transform="matrix(0.062506,0,0,0.062506,0,13.438783)"/>
</g>
</svg>
